X: 33968
T: Redican's Mother
R: slip jig
M: 9/8
K: Gmajor
FAA FAd AFD|FAA FAd B2 A|FAA FAd AFD|EDB, DFA B2 A:|
~f3 faf edB|A2f fef g3|~f3 faf edB|AFE DFA B2 A:|

